X: 30482
T: Old Woman Of The Milldust
R: jig
M: 6/8
K: Amixolydian
|:ABd e2A|f2d e2A|ABd e2f|g2e dBG|
ABd e2A|fgd e2A|BAB GBd|g2e dBG:|
|:ABA a3|gfe a3|ABA a2f|g2e dBG|
ABA a3|gfe a3|gfe dBd|ege dBG:|
ABA ^c2A|d2B ^c2A|ABA ^c2A|d2^c BAG|
ABA ^c2A|d2B ^c2A|BAB GBd|ege dBG:|

